images/3247284.svg

<?xml version="1.0" encoding="UTF-8"?>
<svg xmlns="http://www.w3.org/2000/svg" xmlns:xlink="http://www.w3.org/1999/xlink" width="300pt" height="300pt" viewBox="0 0 300 300" version="1.1">
<defs>
<g>
<symbol overflow="visible" id="glyph0-0">
<path style="stroke:none;" d="M 0.453125 1.59375 L 0.453125 -6.34375 L 4.953125 -6.34375 L 4.953125 1.59375 Z M 0.953125 1.09375 L 4.453125 1.09375 L 4.453125 -5.84375 L 0.953125 -5.84375 Z M 0.953125 1.09375 "/>
</symbol>
<symbol overflow="visible" id="glyph0-1">
<path style="stroke:none;" d="M 0.890625 -6.5625 L 2.078125 -6.5625 L 4.984375 -1.078125 L 4.984375 -6.5625 L 5.84375 -6.5625 L 5.84375 0 L 4.65625 0 L 1.75 -5.484375 L 1.75 0 L 0.890625 0 Z M 0.890625 -6.5625 "/>
</symbol>
<symbol overflow="visible" id="glyph0-2">
<path style="stroke:none;" d="M 0.890625 -6.5625 L 1.765625 -6.5625 L 1.765625 -3.875 L 5 -3.875 L 5 -6.5625 L 5.890625 -6.5625 L 5.890625 0 L 5 0 L 5 -3.125 L 1.765625 -3.125 L 1.765625 0 L 0.890625 0 Z M 0.890625 -6.5625 "/>
</symbol>
<symbol overflow="visible" id="glyph0-3">
<path style="stroke:none;" d="M 3.546875 -5.953125 C 2.898438 -5.953125 2.382812 -5.710938 2 -5.234375 C 1.625 -4.753906 1.4375 -4.101562 1.4375 -3.28125 C 1.4375 -2.445312 1.625 -1.789062 2 -1.3125 C 2.382812 -0.832031 2.898438 -0.59375 3.546875 -0.59375 C 4.191406 -0.59375 4.703125 -0.832031 5.078125 -1.3125 C 5.453125 -1.789062 5.640625 -2.445312 5.640625 -3.28125 C 5.640625 -4.101562 5.453125 -4.753906 5.078125 -5.234375 C 4.703125 -5.710938 4.191406 -5.953125 3.546875 -5.953125 Z M 3.546875 -6.6875 C 4.460938 -6.6875 5.195312 -6.375 5.75 -5.75 C 6.300781 -5.132812 6.578125 -4.3125 6.578125 -3.28125 C 6.578125 -2.238281 6.300781 -1.410156 5.75 -0.796875 C 5.195312 -0.179688 4.460938 0.125 3.546875 0.125 C 2.617188 0.125 1.878906 -0.179688 1.328125 -0.796875 C 0.773438 -1.410156 0.5 -2.238281 0.5 -3.28125 C 0.5 -4.3125 0.773438 -5.132812 1.328125 -5.75 C 1.878906 -6.375 2.617188 -6.6875 3.546875 -6.6875 Z M 3.546875 -6.6875 "/>
</symbol>
</g>
</defs>
<g id="surface29237">
<rect x="0" y="0" width="300" height="300" style="fill:rgb(100%,100%,100%);fill-opacity:1;stroke:none;"/>
<path style=" stroke:none;fill-rule:nonzero;fill:rgb(0%,0%,0%);fill-opacity:1;" d="M 120.960938 185.128906 L 121.148438 204.960938 L 127.925781 203.699219 Z M 120.960938 185.128906 "/>
<path style="fill:none;stroke-width:1.2;stroke-linecap:butt;stroke-linejoin:miter;stroke:rgb(0%,0%,0%);stroke-opacity:1;stroke-miterlimit:10;" d="M 120.960938 185.128906 L 135.804688 172.433594 "/>
<path style="fill:none;stroke-width:1.2;stroke-linecap:butt;stroke-linejoin:miter;stroke:rgb(0%,0%,0%);stroke-opacity:1;stroke-miterlimit:10;" d="M 120.960938 185.128906 L 102.546875 178.625 "/>
<path style="fill:none;stroke-width:1;stroke-linecap:butt;stroke-linejoin:miter;stroke:rgb(0%,0%,0%);stroke-opacity:1;stroke-miterlimit:10;" d="M 135.804688 172.433594 L 135.804688 172.433594 M 138.804688 172.40625 L 138.613281 171.382812 M 141.804688 172.378906 L 141.421875 170.328125 M 144.804688 172.351562 L 144.230469 169.277344 M 147.804688 172.324219 L 147.039062 168.222656 M 150.804688 172.296875 L 149.847656 167.171875 M 153.804688 172.269531 L 152.660156 166.117188 M 155.636719 172.25 L 154.375 165.472656 "/>
<path style="fill:none;stroke-width:1.2;stroke-linecap:butt;stroke-linejoin:miter;stroke:rgb(0%,0%,0%);stroke-opacity:1;stroke-miterlimit:10;" d="M 142.308594 154.019531 L 135.804688 172.433594 "/>
<path style="fill:none;stroke-width:1.2;stroke-linecap:butt;stroke-linejoin:miter;stroke:rgb(0%,0%,0%);stroke-opacity:1;stroke-miterlimit:10;" d="M 155.003906 168.863281 L 142.308594 154.019531 "/>
<path style="fill:none;stroke-width:1;stroke-linecap:butt;stroke-linejoin:miter;stroke:rgb(0%,0%,0%);stroke-opacity:1;stroke-miterlimit:10;" d="M 142.308594 154.019531 L 142.308594 154.019531 M 139.992188 152.113281 L 139.480469 153.023438 M 137.675781 150.207031 L 136.652344 152.023438 M 135.363281 148.300781 L 133.824219 151.023438 M 133.046875 146.394531 L 130.996094 150.023438 M 130.730469 144.488281 L 128.164062 149.027344 M 128.414062 142.578125 L 125.335938 148.027344 M 127 141.414062 L 123.609375 147.417969 "/>
<path style="fill:none;stroke-width:1.2;stroke-linecap:butt;stroke-linejoin:miter;stroke:rgb(0%,0%,0%);stroke-opacity:1;stroke-miterlimit:10;" d="M 142.308594 154.019531 L 154.722656 138.941406 "/>
<path style=" stroke:none;fill-rule:nonzero;fill:rgb(0%,0%,0%);fill-opacity:1;" d="M 154.722656 138.941406 L 151.09375 119.445312 L 144.640625 121.863281 Z M 154.722656 138.941406 "/>
<path style="fill:none;stroke-width:1.2;stroke-linecap:butt;stroke-linejoin:miter;stroke:rgb(0%,0%,0%);stroke-opacity:1;stroke-miterlimit:10;" d="M 154.722656 138.941406 L 164.351562 140.546875 "/>
<path style="fill:none;stroke-width:1.2;stroke-linecap:butt;stroke-linejoin:miter;stroke:rgb(0%,0%,100%);stroke-opacity:1;stroke-miterlimit:10;" d="M 164.351562 140.546875 L 173.984375 142.152344 "/>
<path style="fill:none;stroke-width:1.2;stroke-linecap:butt;stroke-linejoin:miter;stroke:rgb(0%,0%,0%);stroke-opacity:1;stroke-miterlimit:10;" d="M 147.867188 120.652344 L 160.28125 105.574219 "/>
<path style="fill:none;stroke-width:1.2;stroke-linecap:butt;stroke-linejoin:miter;stroke:rgb(0%,0%,0%);stroke-opacity:1;stroke-miterlimit:10;" d="M 145.5625 116.226562 L 155.492188 104.164062 "/>
<path style="fill:none;stroke-width:1.2;stroke-linecap:butt;stroke-linejoin:miter;stroke:rgb(0%,0%,0%);stroke-opacity:1;stroke-miterlimit:10;" d="M 128.601562 117.445312 L 147.867188 120.652344 "/>
<path style="fill:none;stroke-width:1.2;stroke-linecap:butt;stroke-linejoin:miter;stroke:rgb(0%,0%,0%);stroke-opacity:1;stroke-miterlimit:10;" d="M 160.28125 105.574219 L 153.425781 87.285156 "/>
<path style="fill:none;stroke-width:1.2;stroke-linecap:butt;stroke-linejoin:miter;stroke:rgb(0%,0%,0%);stroke-opacity:1;stroke-miterlimit:10;" d="M 153.425781 87.285156 L 134.160156 84.078125 "/>
<path style="fill:none;stroke-width:1.2;stroke-linecap:butt;stroke-linejoin:miter;stroke:rgb(0%,0%,0%);stroke-opacity:1;stroke-miterlimit:10;" d="M 150.746094 91.5 L 135.332031 88.929688 "/>
<path style="fill:none;stroke-width:1.2;stroke-linecap:butt;stroke-linejoin:miter;stroke:rgb(0%,0%,0%);stroke-opacity:1;stroke-miterlimit:10;" d="M 134.160156 84.078125 L 121.75 99.15625 "/>
<path style="fill:none;stroke-width:1.2;stroke-linecap:butt;stroke-linejoin:miter;stroke:rgb(0%,0%,0%);stroke-opacity:1;stroke-miterlimit:10;" d="M 121.75 99.15625 L 128.601562 117.445312 "/>
<path style="fill:none;stroke-width:1.2;stroke-linecap:butt;stroke-linejoin:miter;stroke:rgb(0%,0%,0%);stroke-opacity:1;stroke-miterlimit:10;" d="M 126.738281 99.371094 L 132.222656 114.003906 "/>
<path style="fill:none;stroke-width:1.2;stroke-linecap:butt;stroke-linejoin:miter;stroke:rgb(0%,0%,100%);stroke-opacity:1;stroke-miterlimit:10;" d="M 173.984375 142.152344 L 177.414062 151.296875 "/>
<path style="fill:none;stroke-width:1.2;stroke-linecap:butt;stroke-linejoin:miter;stroke:rgb(0%,0%,0%);stroke-opacity:1;stroke-miterlimit:10;" d="M 177.414062 151.296875 L 180.839844 160.4375 "/>
<path style=" stroke:none;fill-rule:nonzero;fill:rgb(100%,100%,100%);fill-opacity:1;" d="M 166.984375 136.652344 L 180.984375 136.652344 L 180.984375 147.652344 L 166.984375 147.652344 Z M 166.984375 136.652344 "/>
<g style="fill:rgb(0%,0%,100%);fill-opacity:1;">
  <use xlink:href="#glyph0-1" x="166.984375" y="145.31543"/>
  <use xlink:href="#glyph0-2" x="173.961914" y="145.31543"/>
</g>
<path style="fill:none;stroke-width:1.2;stroke-linecap:butt;stroke-linejoin:miter;stroke:rgb(0%,0%,0%);stroke-opacity:1;stroke-miterlimit:10;" d="M 179.066406 158.980469 L 172.859375 166.519531 "/>
<path style="fill:none;stroke-width:1.2;stroke-linecap:butt;stroke-linejoin:miter;stroke:rgb(100%,0%,0%);stroke-opacity:1;stroke-miterlimit:10;" d="M 172.859375 166.519531 L 166.652344 174.058594 "/>
<path style="fill:none;stroke-width:1.2;stroke-linecap:butt;stroke-linejoin:miter;stroke:rgb(0%,0%,0%);stroke-opacity:1;stroke-miterlimit:10;" d="M 182.613281 161.898438 L 176.40625 169.4375 "/>
<path style="fill:none;stroke-width:1.2;stroke-linecap:butt;stroke-linejoin:miter;stroke:rgb(100%,0%,0%);stroke-opacity:1;stroke-miterlimit:10;" d="M 176.40625 169.4375 L 170.199219 176.976562 "/>
<path style="fill:none;stroke-width:1.2;stroke-linecap:butt;stroke-linejoin:miter;stroke:rgb(0%,0%,0%);stroke-opacity:1;stroke-miterlimit:10;" d="M 180.839844 160.4375 L 190.472656 162.042969 "/>
<path style="fill:none;stroke-width:1.2;stroke-linecap:butt;stroke-linejoin:miter;stroke:rgb(100%,0%,0%);stroke-opacity:1;stroke-miterlimit:10;" d="M 190.472656 162.042969 L 200.101562 163.648438 "/>
<path style=" stroke:none;fill-rule:nonzero;fill:rgb(100%,100%,100%);fill-opacity:1;" d="M 160.425781 170.019531 L 168.425781 170.019531 L 168.425781 181.019531 L 160.425781 181.019531 Z M 160.425781 170.019531 "/>
<g style="fill:rgb(100%,0%,0%);fill-opacity:1;">
  <use xlink:href="#glyph0-3" x="160.425781" y="178.682617"/>
</g>
<path style="fill:none;stroke-width:1.2;stroke-linecap:butt;stroke-linejoin:miter;stroke:rgb(100%,0%,0%);stroke-opacity:1;stroke-miterlimit:10;" d="M 200.101562 163.648438 L 203.53125 172.792969 "/>
<path style="fill:none;stroke-width:1.2;stroke-linecap:butt;stroke-linejoin:miter;stroke:rgb(0%,0%,0%);stroke-opacity:1;stroke-miterlimit:10;" d="M 203.53125 172.792969 L 206.957031 181.9375 "/>
<path style=" stroke:none;fill-rule:nonzero;fill:rgb(100%,100%,100%);fill-opacity:1;" d="M 196.101562 158.148438 L 204.101562 158.148438 L 204.101562 169.148438 L 196.101562 169.148438 Z M 196.101562 158.148438 "/>
<g style="fill:rgb(100%,0%,0%);fill-opacity:1;">
  <use xlink:href="#glyph0-3" x="196.101562" y="166.811523"/>
</g>
<path style="fill:none;stroke-width:1.2;stroke-linecap:butt;stroke-linejoin:miter;stroke:rgb(0%,0%,0%);stroke-opacity:1;stroke-miterlimit:10;" d="M 206.957031 181.9375 L 226.222656 185.144531 "/>
<path style="fill:none;stroke-width:1.2;stroke-linecap:butt;stroke-linejoin:miter;stroke:rgb(0%,0%,0%);stroke-opacity:1;stroke-miterlimit:10;" d="M 226.222656 185.144531 L 233.074219 203.433594 "/>
<path style="fill:none;stroke-width:1.2;stroke-linecap:butt;stroke-linejoin:miter;stroke:rgb(0%,0%,0%);stroke-opacity:1;stroke-miterlimit:10;" d="M 231.210938 185.363281 L 236.691406 199.992188 "/>
<path style="fill:none;stroke-width:1.2;stroke-linecap:butt;stroke-linejoin:miter;stroke:rgb(0%,0%,0%);stroke-opacity:1;stroke-miterlimit:10;" d="M 238.632812 170.066406 L 226.222656 185.144531 "/>
<path style="fill:none;stroke-width:1.2;stroke-linecap:butt;stroke-linejoin:miter;stroke:rgb(0%,0%,0%);stroke-opacity:1;stroke-miterlimit:10;" d="M 233.074219 203.433594 L 252.339844 206.644531 "/>
<path style="fill:none;stroke-width:1.2;stroke-linecap:butt;stroke-linejoin:miter;stroke:rgb(0%,0%,0%);stroke-opacity:1;stroke-miterlimit:10;" d="M 252.339844 206.644531 L 264.75 191.5625 "/>
<path style="fill:none;stroke-width:1.2;stroke-linecap:butt;stroke-linejoin:miter;stroke:rgb(0%,0%,0%);stroke-opacity:1;stroke-miterlimit:10;" d="M 250.03125 202.214844 L 259.960938 190.152344 "/>
<path style="fill:none;stroke-width:1.2;stroke-linecap:butt;stroke-linejoin:miter;stroke:rgb(0%,0%,0%);stroke-opacity:1;stroke-miterlimit:10;" d="M 264.75 191.5625 L 257.898438 173.277344 "/>
<path style="fill:none;stroke-width:1.2;stroke-linecap:butt;stroke-linejoin:miter;stroke:rgb(0%,0%,0%);stroke-opacity:1;stroke-miterlimit:10;" d="M 257.898438 173.277344 L 238.632812 170.066406 "/>
<path style="fill:none;stroke-width:1.2;stroke-linecap:butt;stroke-linejoin:miter;stroke:rgb(0%,0%,0%);stroke-opacity:1;stroke-miterlimit:10;" d="M 255.214844 177.488281 L 239.804688 174.921875 "/>
<path style="fill:none;stroke-width:1.2;stroke-linecap:butt;stroke-linejoin:miter;stroke:rgb(0%,0%,0%);stroke-opacity:1;stroke-miterlimit:10;" d="M 104.808594 178.203125 L 103.019531 168.605469 "/>
<path style="fill:none;stroke-width:1.2;stroke-linecap:butt;stroke-linejoin:miter;stroke:rgb(100%,0%,0%);stroke-opacity:1;stroke-miterlimit:10;" d="M 103.019531 168.605469 L 101.234375 159.003906 "/>
<path style="fill:none;stroke-width:1.2;stroke-linecap:butt;stroke-linejoin:miter;stroke:rgb(0%,0%,0%);stroke-opacity:1;stroke-miterlimit:10;" d="M 100.289062 179.042969 L 98.503906 169.445312 "/>
<path style="fill:none;stroke-width:1.2;stroke-linecap:butt;stroke-linejoin:miter;stroke:rgb(100%,0%,0%);stroke-opacity:1;stroke-miterlimit:10;" d="M 98.503906 169.445312 L 96.714844 159.84375 "/>
<path style="fill:none;stroke-width:1.2;stroke-linecap:butt;stroke-linejoin:miter;stroke:rgb(0%,0%,0%);stroke-opacity:1;stroke-miterlimit:10;" d="M 102.546875 178.625 L 95.128906 184.972656 "/>
<path style="fill:none;stroke-width:1.2;stroke-linecap:butt;stroke-linejoin:miter;stroke:rgb(0%,0%,100%);stroke-opacity:1;stroke-miterlimit:10;" d="M 95.128906 184.972656 L 87.707031 191.320312 "/>
<path style=" stroke:none;fill-rule:nonzero;fill:rgb(100%,100%,100%);fill-opacity:1;" d="M 94.972656 153.925781 L 102.972656 153.925781 L 102.972656 164.925781 L 94.972656 164.925781 Z M 94.972656 153.925781 "/>
<g style="fill:rgb(100%,0%,0%);fill-opacity:1;">
  <use xlink:href="#glyph0-3" x="94.972656" y="162.588867"/>
</g>
<path style="fill:none;stroke-width:1.2;stroke-linecap:butt;stroke-linejoin:miter;stroke:rgb(0%,0%,100%);stroke-opacity:1;stroke-miterlimit:10;" d="M 87.707031 191.320312 L 78.5 188.066406 "/>
<path style="fill:none;stroke-width:1.2;stroke-linecap:butt;stroke-linejoin:miter;stroke:rgb(0%,0%,0%);stroke-opacity:1;stroke-miterlimit:10;" d="M 78.5 188.066406 L 69.292969 184.8125 "/>
<path style=" stroke:none;fill-rule:nonzero;fill:rgb(100%,100%,100%);fill-opacity:1;" d="M 80.707031 185.820312 L 94.707031 185.820312 L 94.707031 196.820312 L 80.707031 196.820312 Z M 80.707031 185.820312 "/>
<g style="fill:rgb(0%,0%,100%);fill-opacity:1;">
  <use xlink:href="#glyph0-1" x="80.707031" y="194.483398"/>
  <use xlink:href="#glyph0-2" x="87.68457" y="194.483398"/>
</g>
<path style="fill:none;stroke-width:1.2;stroke-linecap:butt;stroke-linejoin:miter;stroke:rgb(0%,0%,0%);stroke-opacity:1;stroke-miterlimit:10;" d="M 69.292969 184.8125 L 54.449219 197.507812 "/>
<path style="fill:none;stroke-width:1.2;stroke-linecap:butt;stroke-linejoin:miter;stroke:rgb(0%,0%,0%);stroke-opacity:1;stroke-miterlimit:10;" d="M 54.449219 197.507812 L 47.945312 215.921875 "/>
<path style="fill:none;stroke-width:1.2;stroke-linecap:butt;stroke-linejoin:miter;stroke:rgb(0%,0%,0%);stroke-opacity:1;stroke-miterlimit:10;" d="M 35.25 201.082031 L 54.449219 197.507812 "/>
<path style="fill:none;stroke-width:1.2;stroke-linecap:butt;stroke-linejoin:miter;stroke:rgb(0%,0%,0%);stroke-opacity:1;stroke-miterlimit:10;" d="M 47.945312 215.921875 L 35.25 201.082031 "/>
</g>
</svg>

<svg xmlns="http://www.w3.org/2000/svg" xmlns:xlink="http://www.w3.org/1999/xlink" width="300pt" height="300pt" viewBox="0 0 300 300"><defs><symbol overflow="visible"><path d="M.453 1.594v-7.938h4.5v7.938zm.5-.5h3.5v-6.938h-3.5zm0 0"/></symbol><symbol overflow="visible" id="a"><path d="M.89-6.563H2.08l2.906 5.485v-5.484h.86V0H4.656L1.75-5.484V0H.89zm0 0"/></symbol><symbol overflow="visible" id="b"><path d="M.89-6.563h.876v2.688H5v-2.688h.89V0H5v-3.125H1.766V0H.89zm0 0"/></symbol><symbol overflow="visible" id="c"><path d="M3.547-5.953c-.65 0-1.164.242-1.547.72-.375.48-.563 1.13-.563 1.952 0 .835.188 1.49.563 1.967.383.48.898.72 1.547.72.644 0 1.156-.24 1.53-.72.376-.476.564-1.132.564-1.968 0-.822-.187-1.474-.562-1.954-.375-.477-.887-.72-1.53-.72zm0-.734c.914 0 1.648.312 2.203.937.55.617.828 1.438.828 2.47 0 1.042-.277 1.87-.828 2.483-.555.617-1.29.922-2.203.922-.93 0-1.668-.305-2.22-.922C.774-1.41.5-2.237.5-3.28c0-1.033.273-1.853.828-2.47.55-.625 1.29-.938 2.22-.938zm0 0"/></symbol></defs><g><path fill="#fff" d="M0 0h300v300H0z"/><path d="M120.96 185.13l.188 19.83 6.778-1.26zm0 0"/><path d="M120.96 185.13l14.845-12.696M120.96 185.13l-18.413-6.505" stroke-width="1.2" stroke="#000" stroke-miterlimit="10" fill="none"/><path d="M135.805 172.434m3-.028l-.192-1.023m3.192.996l-.383-2.052m3.383 2.024l-.575-3.075m3.575 3.047l-.766-4.1m3.765 4.073l-.957-5.125m3.957 5.098l-1.145-6.153m2.977 6.133l-1.262-6.777" stroke="#000" stroke-miterlimit="10" fill="none"/><path d="M142.31 154.02l-6.505 18.414M155.004 168.863L142.31 154.02" stroke-width="1.2" stroke="#000" stroke-miterlimit="10" fill="none"/><path d="M142.31 154.02m-2.318-1.907l-.512.91m-1.804-2.816l-1.024 1.816m-1.29-3.722l-1.538 2.723m-.777-4.628l-2.05 3.628m-.267-5.535l-2.566 4.54m.25-6.45l-3.078 5.45m1.664-6.614l-3.39 6.004" stroke="#000" stroke-miterlimit="10" fill="none"/><path d="M142.31 154.02l12.413-15.08" stroke-width="1.2" stroke="#000" stroke-miterlimit="10" fill="none"/><path d="M154.723 138.94l-3.63-19.495-6.452 2.418zm0 0"/><path d="M154.723 138.94l9.63 1.607" stroke-width="1.2" stroke="#000" stroke-miterlimit="10" fill="none"/><path d="M164.352 140.547l9.632 1.605" stroke-width="1.2" stroke="#00f" stroke-miterlimit="10" fill="none"/><path d="M147.867 120.652l12.414-15.078M145.563 116.227l9.93-12.063M128.602 117.445l19.265 3.207M160.28 105.574l-6.854-18.29M153.426 87.285l-19.266-3.207M150.746 91.5l-15.414-2.57M134.16 84.078l-12.41 15.078M121.75 99.156l6.852 18.29M126.738 99.37l5.485 14.634" stroke-width="1.2" stroke="#000" stroke-miterlimit="10" fill="none"/><path d="M173.984 142.152l3.43 9.145" stroke-width="1.2" stroke="#00f" stroke-miterlimit="10" fill="none"/><path d="M177.414 151.297l3.426 9.14" stroke-width="1.2" stroke="#000" stroke-miterlimit="10" fill="none"/><path d="M166.984 136.652h14v11h-14zm0 0" fill="#fff"/><g fill="#00f"><use xlink:href="#a" x="166.984" y="145.315"/><use xlink:href="#b" x="173.962" y="145.315"/></g><path d="M179.066 158.98l-6.207 7.54" stroke-width="1.2" stroke="#000" stroke-miterlimit="10" fill="none"/><path d="M172.86 166.52l-6.208 7.54" stroke-width="1.2" stroke="#f00" stroke-miterlimit="10" fill="none"/><path d="M182.613 161.898l-6.207 7.54" stroke-width="1.2" stroke="#000" stroke-miterlimit="10" fill="none"/><path d="M176.406 169.438l-6.207 7.54" stroke-width="1.2" stroke="#f00" stroke-miterlimit="10" fill="none"/><path d="M180.84 160.438l9.633 1.605" stroke-width="1.2" stroke="#000" stroke-miterlimit="10" fill="none"/><path d="M190.473 162.043l9.63 1.605" stroke-width="1.2" stroke="#f00" stroke-miterlimit="10" fill="none"/><path d="M160.426 170.02h8v11h-8zm0 0" fill="#fff"/><use xlink:href="#c" x="160.426" y="178.683" fill="#f00"/><path d="M200.102 163.648l3.43 9.145" stroke-width="1.2" stroke="#f00" stroke-miterlimit="10" fill="none"/><path d="M203.53 172.793l3.427 9.144" stroke-width="1.2" stroke="#000" stroke-miterlimit="10" fill="none"/><path d="M196.102 158.148h8v11h-8zm0 0" fill="#fff"/><use xlink:href="#c" x="196.102" y="166.812" fill="#f00"/><path d="M206.957 181.938l19.266 3.207M226.223 185.145l6.85 18.29M231.21 185.363l5.48 14.63M238.633 170.066l-12.41 15.08M233.074 203.434l19.266 3.21M252.34 206.645l12.41-15.083M250.03 202.215l9.93-12.063M264.75 191.563l-6.852-18.286M257.898 173.277l-19.265-3.21M255.215 177.488l-15.41-2.566M104.81 178.203l-1.79-9.598" stroke-width="1.2" stroke="#000" stroke-miterlimit="10" fill="none"/><path d="M103.02 168.605l-1.786-9.6" stroke-width="1.2" stroke="#f00" stroke-miterlimit="10" fill="none"/><path d="M100.29 179.043l-1.786-9.598" stroke-width="1.2" stroke="#000" stroke-miterlimit="10" fill="none"/><path d="M98.504 169.445l-1.79-9.6" stroke-width="1.2" stroke="#f00" stroke-miterlimit="10" fill="none"/><path d="M102.547 178.625l-7.418 6.348" stroke-width="1.2" stroke="#000" stroke-miterlimit="10" fill="none"/><path d="M95.13 184.973l-7.423 6.347" stroke-width="1.2" stroke="#00f" stroke-miterlimit="10" fill="none"/><path d="M94.973 153.926h8v11h-8zm0 0" fill="#fff"/><use xlink:href="#c" x="94.973" y="162.589" fill="#f00"/><path d="M87.707 191.32l-9.207-3.254" stroke-width="1.2" stroke="#00f" stroke-miterlimit="10" fill="none"/><path d="M78.5 188.066l-9.207-3.254" stroke-width="1.2" stroke="#000" stroke-miterlimit="10" fill="none"/><path d="M80.707 185.82h14v11h-14zm0 0" fill="#fff"/><g fill="#00f"><use xlink:href="#a" x="80.707" y="194.483"/><use xlink:href="#b" x="87.685" y="194.483"/></g><path d="M69.293 184.813L54.45 197.507M54.45 197.508l-6.505 18.414M35.25 201.082l19.2-3.574M47.945 215.922l-12.695-14.84" stroke-width="1.2" stroke="#000" stroke-miterlimit="10" fill="none"/></g></svg>
